!!!SOCIAL_FUNCTION:	songs of dances presented at makah day celebrations
!!!PDT:	1939
!!!OTL: No_57_Young_Doctor's_Canoe_Song_(a).krn
!!!LANG: Non-Tone
!!!LING_GROUP: Wakashan
!!!REG: Pacific Northwest
**kern	**kern
*staff2	*staff1
=1-	=1-
*clefF4	*clefF4
*k[b-e-a-d-g-]	*k[b-e-a-d-g-]
*M2/4	*M2/4
2GG-/	4r
.	8.B-\L
.	16B-\Jk
=2	=2
2GG-/	(2c\
=3||	=3||
*M3/4	*M3/4
2.r	4d-\)
.	4d-\
.	8.c\L
.	16B-\Jk
=4	=4
2.r	4B-\
.	8F\
.	8r
.	8.c\L
.	16c\Jk
=5||	=5||
*M2/4	*M2/4
2GG-/	4B-\
.	4r
=6	=6
2GG-/	[2B-\
=7	=7
2GG-/	8B-\]
.	8r
.	8.e-\L
.	16d-\Jk
=8	=8
2GG-/	4..d-\
.	16c\
=9	=9
2GG-/	4..d-\
.	16c\
=10	=10
2GG-/	4..d-\
.	16c\
=11	=11
2GG-/	8B-\
.	8r
.	4d-\
=12	=12
2GG-/	4.c\
.	8B-\
=13	=13
2GG-/	4c\
.	8.d-\L
.	16c\Jk
=14	=14
2GG-/	4.d-\
.	8c\
=15	=15
2GG-/	8B-\
.	8r
.	4c\
=16	=16
2GG-/	4.B-\
.	8F\
=17	=17
2GG-/	2c\
=18	=18
2GG-/	4d-\
.	4c\
=19	=19
2GG-/	8B-\
.	8r
.	8.c\L
.	16d-\Jk
=20	=20
2GG-/	4..d-\
.	16c\
=21	=21
2GG-/	4..d-\
.	16c\
=22	=22
2GG-/	4..d-\
.	16c\
=23	=23
2GG-/	4.B-\
.	8r
=24	=24
2GG-/	2B-\
=25	=25
2GG-/	4B-\
.	4r
==	==
*-	*-
